symbols/web/signal_cellular_connected_no_internet_0_bar/materialsymbolssharp/signal_cellular_connected_no_internet_0_bar_fill1_40px.svg

<svg xmlns="http://www.w3.org/2000/svg" height="40" width="40"><path d="M31.125 33.875v2.792H3.333L36.667 3.333v10.542h-2.792v-3.833L10.042 33.875Zm2.75-2.75v-14.5h2.792v14.5Zm0 5.542v-2.792h2.792v2.792Z"/></svg>

<svg xmlns="http://www.w3.org/2000/svg" height="40" width="40"><path d="M31.125 33.875V36.667H3.333L36.667 3.333V13.875H33.875V10.042L10.042 33.875ZM33.875 31.125V16.625H36.667V31.125ZM33.875 36.667V33.875H36.667V36.667Z"/></svg>
